cognitive-book/static/img/logo.svg

<svg width="500" height="512" viewBox="0 0 500 512" fill="none" xmlns="http://www.w3.org/2000/svg">
<g clip-path="url(#clip0_10_2)">
<path d="M115.5 9.08824C102.3 7.08824 75.5 45 68.5 61.5C70.6667 159 77.6999 375.4 72.4999 433C67.2999 490.6 110.167 497.588 129.5 500.088C196.667 501.755 342.5 504.088 388.5 500.088C434.5 496.088 436.833 471.833 437 456V146L331 9.08824C264.667 9.92158 128.7 11.0882 115.5 9.08824Z" fill="white" stroke="black"/>
<path d="M117.91 0H319.59C323.52 0 327.03 1.83 329.31 4.67L443.59 128.34C445.8 130.71 446.86 133.74 446.86 136.75L446.92 446.75C446.92 482.18 417.52 511.56 382.12 511.56H117.91C82.3401 511.56 53.1001 482.32 53.1001 446.75V64.8C53.1001 29.13 82.2301 0 117.91 0ZM325.5 37.15V90.09C327.9 121.43 349.07 133.08 378.43 133.59L414.59 133.55L325.5 37.15ZM422 158.45L378.23 158.41C335.64 157.73 304.11 136.44 300.69 91.87L300.6 24.92H117.91C95.9801 24.92 78.0201 42.88 78.0201 64.8V446.75C78.0201 468.57 96.0901 486.64 117.91 486.64H382.12C403.83 486.64 422 468.49 422 446.75V158.45Z" fill="black"/>
<path fill-rule="evenodd" clip-rule="evenodd" d="M28.04 194.61H471.96C487.39 194.61 500 207.24 500 222.65V411.19C500 426.59 487.37 439.23 471.96 439.23H28.04C12.64 439.23 0 426.61 0 411.19V222.65C0 207.22 12.62 194.61 28.04 194.61Z" fill="#CC0000"/>
<path d="M201.48 377.38H160.66L192 256.45H251.79L283.14 377.38H242.31L237.86 358.23H205.94L201.48 377.38ZM220.83 293.6L212.9 327.46H230.7L222.96 293.6H220.83ZM300.65 377.38V256.45H339.35V377.38H300.65Z" fill="white"/>
</g>
<defs>
<clipPath id="clip0_10_2">
<rect width="500" height="511.56" fill="white"/>
</clipPath>
</defs>
</svg>

<svg xmlns="http://www.w3.org/2000/svg" shape-rendering="geometricPrecision" text-rendering="geometricPrecision" image-rendering="optimizeQuality" fill-rule="evenodd" clip-rule="evenodd" viewBox="0 0 500 511.56"><path fill-rule="nonzero" d="M117.91 0h201.68c3.93 0 7.44 1.83 9.72 4.67l114.28 123.67c2.21 2.37 3.27 5.4 3.27 8.41l.06 310c0 35.43-29.4 64.81-64.8 64.81H117.91c-35.57 0-64.81-29.24-64.81-64.81V64.8C53.1 29.13 82.23 0 117.91 0zM325.5 37.15v52.94c2.4 31.34 23.57 42.99 52.93 43.5l36.16-.04-89.09-96.4zm96.5 121.3l-43.77-.04c-42.59-.68-74.12-21.97-77.54-66.54l-.09-66.95H117.91c-21.93 0-39.89 17.96-39.89 39.88v381.95c0 21.82 18.07 39.89 39.89 39.89h264.21c21.71 0 39.88-18.15 39.88-39.89v-288.3z"/><path fill="#cc0000" d="M28.04 194.61h443.92c15.43 0 28.04 12.63 28.04 28.04v188.54c0 15.4-12.63 28.04-28.04 28.04H28.04C12.64 439.23 0 426.61 0 411.19V222.65c0-15.43 12.62-28.04 28.04-28.04z"/><path fill="#fff" fill-rule="nonzero" d="M201.48 377.38h-40.82L192 256.45h59.79l31.35 120.93h-40.83l-4.45-19.15h-31.92l-4.46 19.15zm19.35-83.78l-7.93 33.86h17.8l-7.74-33.86h-2.13zm79.82 83.78V256.45h38.7v120.93h-38.7z"/></svg>
